!!!!SEGMENT: pl-wnifc--13846--132_anonim--piesni-polskie-i-ruskie-ludu-galicyjskiego-132-dolez-mojja-neszczasnaja.krn
!!!kernsource:
!!!cenid: 18xx:3354
!!!COM: Anonim
!!!COM-rismid: pe30004985
!!!CDT:
!!!CNT:
!!!GTL: Pieśni polskie i ruskie ludu galicyjskiego
!!!OTL: 132. Dołeż mojja neszczasnaja
!!!PDT: 1833
!!!AGN:
!!!SMS-siglum: PL-Wnifc
!!!SMS-shelfmark: 13846
!!!SMS-shelfwork: 132 G
!!!SMS-variant:
!!!SMS-altvar:
!!!NIFC-rismid: 1001039639
!!!URL-scan: http://repozytorium.nifc.pl/skany/pl-wnifc-nut--13846
!!!ONB-nifc:
!!!OMD: Vivace
!!!AIN: 1 piano 1 vox
!!!key: d
**kern	**kern	**kern	**text
*part2	*part2	*part1	*part1
*staff3	*staff2	*staff1	*staff1
*I"Fortepian	*I"Fortepian	*I"Głos	*
*Ipiano	*Ipiano	*Ivox	*
*ICklav	*ICklav	*ICvox	*
*IGacmp	*IGacmp	*IGsolo	*
*clefF4	*clefG2	*clefG2	*
*k[b-]	*k[b-]	*k[b-]	*
*d:	*d:	*d:	*
*M2/4	*M2/4	*M2/4	*
=1	=1	=1	=1
*tremolo	*	*	*
!	!	!LO:TX:a:t=E.224.	!
8D\L 8F\ 8A\	8dd|>\L	8dd\	Do-
8AA\	8ff|>\J	8ff\	-łeż
.	(8qgg/	8qgg/	.
8D\ 8F\ 8A\	(>16ff\LL)	(16ff\LL	moj-
.	16ee\J)	16ee\JJ)	.
8AA\J	8ff\J	8ff\	-ja
=2	=2	=2	=2
8C#X\L 8E\ 8A\	8ee\L	8ee\	ne-
8AA\	8gg\J	8gg\	-szcza-
.	(8qaa/	8qaa/	.
8C#X\ 8E\ 8A\	8gg\L)	8gg\	-sna-
8AA\J	(16ff\L	(16ff\LL	-ja,
.	16ee\JJ)	16ee\JJ)	.
!!LO:LB:g=original
=3	=3	=3	=3
8D\L 8F\ 8A\	8dd\L	8dd\	szczo-
.	8qee/	.	.
8AA\	8ff\J	8ff\	-ty
.	(<8qgg/	.	.
8D\ 8F\ 8A\	(16ff\LL)	(16ff\LL	wy-
.	16ee\	16ee\	.
8AA\J	16ff\)	16ff\JJ)	.
.	16dd|>\JJ	16dd|>\	-ra-
*Xtremolo	*	*	*
=4	=4	=4	=4
8C#X\L 8E\ 8A\	8.ee\L	(8.ee\L	-bla-
8AA\	.	.	.
.	16cc#X\Jk	16cc#X\Jk)	.
8C#\ 8E\ 8A\	4a/	4a/	-jesz,
8AA\J	.	.	.
=5	=5	=5	=5
*tremolo	*	*	*
8D\L 8F\ 8A\	8dd\L	8dd\	da-
8AA\	8ff\	8ff\	-łaś
8D\ 8F\ 8A\	8ff\	8ff\	na
8AA\J	8ff\J	8ff\	czas
!!LO:LB:g=original
=6	=6	=6	=6
8C#X\L 8E\ 8A\	8ee\L	8ee\	pi-
8AA\	8gg\J	8gg\	-zna-
.	(8qaa/	(<8qaa/	.
8C#X\ 8E\ 8A\	8gg\L)	8gg\)	-ty
8AA\J	(16ff\L	(16ff\LL	sia,
.	16ee\JJ)	16ee\JJ)	.
*Xtremolo	*	*	*
=7	=7	=7	=7
8D\L 8F\ 8A\	8dd\L	8dd\	te-
8AA\J	8ff\J	8ff\	-per
8E\L 8G\ 8A\	8.aa\L	8.aa\	roz-
8AA\J	.	.	.
.	16cc#X\Jk	16cc#X\	-łu-
=8	=8	=8	=8
8D\L 8F\ 8A\	4dd\	4dd\	-cza-
8AA/	.	.	.
8D\J	8dd\	8dd\	-jesz.
8r	8r	8r	.
!!LO:PB:g=original
==9	==9	==9	==9
8D\L 8A\	8ff\L	8ff\	Ach
8AA\	8aa\J	8aa\	nech-
.	8qbb-/	(<8qbb-/	.
8D\ 8A\	8aa\L	8aa\)	-że
8AA\J	16gg\L	(16gg\LL	nam
.	16ff\JJ	16ff\JJ)	.
=10	=10	=10	=10
8C#X\L 8A\	8ee\L	8ee\	ta
8AA\	8gg\J	8gg\	roz-
.	(8qaa/	(<8qaa/	.
8C#\ 8A\	8gg\L)	8gg\)	-łu-
8AA\J	(16ff\L	(16ff\LL	-ka
.	16ee\JJ)	16ee\JJ)	.
!!LO:LB:g=original
=11	=11	=11	=11
8F\L 8A\	8dd\L	8dd\	ne
8AA\J	8ff\J	8ff\	do-
8D\L 8A\	(16ff\LL	(16ff\LL	-da-
.	16ee\)	16ee\JJ)	.
8AA\J	(16ff\	(16ff\LL	-je
.	16dd\JJ)	16dd\JJ)	.
=12	=12	=12	=12
8C#X\L 8A\	(8.ee\L	(8.ee\L	smut-
8AA\	.	.	.
.	16cc#X\Jk)	16cc#X\Jk)	.
8C#\ 8A\	4a/	4a/	-ku,
8AA\J	.	.	.
!!LO:LB:g=original
=13	=13	=13	=13
*tremolo	*	*	*
8D\L 8A\	8ff\L	8ff\	boh
8AA\	8aa\J	8aa\	ła-
.	(<8qbb-/	8qbb-/	.
8D\ 8A\	8aa\L)	8aa\	-ska-
8AA\J	(16gg\L	(16gg\LL	-wy
.	16ff\JJ)	16ff\JJ)	.
=14	=14	=14	=14
8C#X\L 8A\	8ee\L	8ee\	na-
8AA\	8gg\J	8gg\	-szu
.	(<8qaa/	8qaa/	.
8C#X\ 8A\	8gg\L)	8gg\	my-
8AA\J	(16ff\L	(16ff\LL	-łisl'
.	16ee\JJ)	16ee\JJ)	.
*Xtremolo	*	*	*
=15	=15	=15	=15
8D\L 8F\ 8A\	8dd\L	8dd\	pry-
8AA\	8ff\J	8ff\	-we-
8E\ 8G\ 8A\	8.aa\L	8.aa\	-de
8AA\J	.	.	.
.	16cc#X\Jk	16cc#X\	do
=16	=16	=16	=16
8D\L 8F\ 8A\	4dd\	4dd\	skut-
8AA\J	.	.	.
4D\	8dd\	8dd\	-ku.
.	8r	8r	.
!!LO:PB:g=original
==	==	==	==
*-	*-	*-	*-
!!!system-decoration: s1,{(s2,s3)}
!!!RDF**kern: < = below
!!!RDF**kern: > = above
!!!RDF**kern: | = vertical stroke
!!!ENC: Marta Chmielewska
!!!END: 2021-11-11
